cc-by-sa/knowledge/modules/history_of_type/lessons/from_metal_to_digital/images/GFKhistoftype6.3.svg

<svg xmlns="http://www.w3.org/2000/svg" width="1920" height="1080" fill="none"><path fill="#3C4043" fill-rule="evenodd" d="M176.949 177.713c-2.292 6.106-100.352 296.765-100.352 297.453 0 .446 13.478.807 29.953.802l29.953-.012 8.621-29.097 8.622-29.1H266.44l5.378 16.875c2.958 9.282 6.978 22.38 8.932 29.11l3.552 12.234h30.402c16.723 0 30.012-.635 29.533-1.409-.48-.775-22.631-65.131-49.228-143.015-26.597-77.883-49.482-144.834-50.856-148.778l-2.499-7.172h-31.956c-24.018 0-32.154.525-32.749 2.109Zm198.334 148.078v150.187h50.625v-65.039l15.135-15.065c8.323-8.285 15.422-14.723 15.775-14.308.351.415 14.848 21.828 32.216 47.584l31.576 46.828h62.405l-7.43-10.547c-4.085-5.8-24.198-35.307-44.695-65.569l-37.266-55.024 40.813-40.733 40.814-40.733-32.906.029-32.906.03-41.766 40.617-41.765 40.618V175.604h-50.625v150.187Zm695.247-97.679v52.51l-6.67-6.03c-16.73-15.113-42.94-21.144-70.222-16.159-34.004 6.21-62.574 36.652-73.509 78.327-4.797 18.289-5.2 53.746-.806 70.874 9.602 37.417 33.827 63.062 67.773 71.744 28.574 7.307 57.684 1.175 75.884-15.985 3.48-3.288 6.61-5.978 6.94-5.978.34 0 .61 4.177.61 9.282v9.281H1121.16V175.604H1070.53v52.508Zm-248.623-49.695c-.619.618-1.125 12.388-1.125 26.156v25.031h50.624v-52.313h-24.187c-13.304 0-24.694.507-25.312 1.126Zm-589.988 121.77c10.282 34.644 19.111 64.069 19.617 65.39.781 2.037-5.385 2.401-40.603 2.401-22.839 0-41.524-.55-41.524-1.221 0-.672 6.883-24.024 15.295-51.891 26.438-87.577 25.503-84.78 27.088-81.043.786 1.856 9.843 31.719 20.127 66.364Zm1020.021-42.522c-29.69 4.612-57.25 22.631-72.1 47.127-19.98 32.973-21.61 85.031-3.77 120.646 12.28 24.522 33.64 42.808 60.32 51.65 12.3 4.079 16.41 4.599 36.64 4.627 28.39.041 43.18-3.796 66.66-17.291 11.03-6.34 39.11-33.583 36.84-35.741-.78-.735-10.49-6.604-21.59-13.043l-20.19-11.708-8.01 8.762c-21.14 23.13-62.32 27.082-86.9 8.337-9.63-7.34-17.62-20.99-21.43-36.6l-1.13-4.64h79.34c74.89 0 79.35-.169 79.35-2.997 0-7.904-3.84-32.982-6.85-44.81-9.13-35.798-31.28-60.183-64.03-70.481-10.86-3.416-41.59-5.635-53.15-3.838Zm261.35 1.455c-15.1 3.284-28.35 10.169-37.84 19.662l-8.36 8.357v-23.785h-50.62v212.624h50.62l.04-55.265c.03-58.374 1.21-73.327 6.82-86.368 4.18-9.71 15.17-20.879 24.29-24.675 7.71-3.209 23.09-3.611 30.45-.793 6.71 2.577 13.82 9.47 18.29 17.758 3.54 6.566 3.66 8.695 4.13 78.046l.49 71.297H1602.09l-.01-77.203c-.01-79.027-.85-92.142-6.71-105.819-11.8-27.525-46.1-41.663-82.08-33.836Zm-908.508 26.991v22.756l51.329.447 51.327.446-57.233 63.91-57.235 63.912v38.396h182.249v-43.875h-55.687c-30.628 0-55.687-.386-55.687-.859 0-.472 25.059-29.425 55.687-64.339l55.687-63.478v-40.073H604.782v22.757Zm216 83.555v106.312h50.624V263.354h-50.624v106.312Zm833.618-83.531v22.781h50.63c27.84 0 50.62.383 50.62.851 0 .467-25.41 29.132-56.47 63.702l-56.48 62.853-.05 19.828-.06 19.828h182.25v-43.875h-55.83c-36.12 0-55.63-.591-55.26-1.672.31-.92 25.43-30.102 55.83-64.852l55.26-63.18v-39.045H1654.4v22.781Zm-359.1 17.2c12.45 6.744 22.82 22.284 23.16 34.69l.13 4.641H1219.3l1.74-6.328c5.19-18.856 18.76-32.442 37.65-37.694 9.64-2.679 27.15-.437 36.61 4.691Zm-254.3 5.181c7.96 4.101 16.17 12.434 20.27 20.552 9.83 19.486 11.14 56.752 2.68 76.493-4.52 10.543-16.17 22.922-25.44 27.052-10.22 4.546-27.01 4.532-37.32-.032-21.416-9.472-33.488-36.047-31.484-69.301 2.28-37.855 22.975-60.594 53.574-58.865 6.7.378 13.6 1.973 17.72 4.101Z" clip-rule="evenodd"/><path fill="#3C4043" d="M121.545 653.699c20.22-19.175 42.719-30.024 70.127-33.814 42.616-5.893 87.976 12.305 112.625 45.183 7.14 9.522 18.674 29.821 18.674 32.864 0 .963-47.516 20.27-47.874 19.451-6.077-13.878-14.992-28.505-21.087-34.6-25.388-25.388-71.043-23.741-95.86 3.456-15.876 17.398-23.589 38.404-25.196 68.614-2.662 50.073 18.823 88.176 55.696 98.775 13.255 3.811 35.274 2.707 48.6-2.433 19.113-7.373 34.405-26.872 38.168-48.671l1.53-8.859h-68.824l.471-22.359c.258-12.299 1.041-22.169 1.736-21.938.695.231 26.325.422 56.953.422h55.687v148.601l-21.515-.473-21.516-.472-.498-11.349-.497-11.348-9.11 7.42c-10.583 8.621-26.468 16.477-39.676 19.622-12.806 3.049-42.091 2.626-56.531-.818-44.557-10.627-78.575-46.096-91.487-95.388-3.527-13.466-4.234-20.05-4.265-39.764-.076-47.842 14.001-83.985 43.669-112.122ZM1385.72 641.22c15.87-11.652 39.6-19.956 62.81-21.985 12.46-1.086 37.21.63 48.94 3.394 6.03 1.422 18.06 5.989 26.74 10.147 13.22 6.34 18.33 10.062 31.64 23.053 8.73 8.521 15.85 16.252 15.82 17.18-.03.928-9.25 8.448-20.51 16.711l-20.45 15.024-3.42-4.899c-12.66-18.132-33.19-31.011-54.64-34.274-38.29-5.826-69.72 13.434-62.96 38.567 3.76 13.937 12.98 18.007 69.21 30.559 35.14 7.84 50.64 13.249 64.67 22.557 19.69 13.069 29.42 29.776 31.03 53.286 1.76 25.572-5.17 44.992-21.87 61.367-24.63 24.142-66.58 36.079-110.82 31.539-35.88-3.682-60.55-14.021-82.19-34.443-7.3-6.897-14.62-14.841-16.26-17.654l-2.97-5.117 21.09-14.533 21.08-14.531 10.93 11.588c17.34 18.377 36.36 26.48 66.75 28.438 26.11 1.679 45.58-5.209 55.24-19.545 5.36-7.943 5.34-22.669-.02-30.631-7.3-10.827-10.3-11.873-79.69-27.785-29.46-6.755-44.66-12.723-55.94-21.971-34.81-28.527-31.82-88.43 5.79-116.042ZM884.907 672.283v-47.368h199.123v47.375l-37.11-.484-37.12-.484-.43 113.062-.43 113.062-24.881.467-24.879.466-.433-113.233-.434-113.234-36.703.186-36.703.185ZM1121.56 763.29c-.24-73.786-.07-135.111.38-136.279.64-1.679 20.87-2.031 96.62-1.687l95.81.435.47 22.36.48 22.359h-143.54v64.125h131.63v43.874h-131.63v73.406h152.72v45.563H1122l-.44-134.156ZM1618.97 898.289V624.915h48.89l.45 62.701.44 62.701 54.82-62.701 54.82-62.701h29.27c16.1 0 29.02.613 28.71 1.361-.31.749-19.92 23.592-43.59 50.763-23.67 27.17-43.23 49.946-43.48 50.611-.38 1.016 84.52 153.835 91.71 165.096 1.32 2.055 2.39 4.161 2.39 4.679 0 .52-13.03.736-28.96.483l-28.96-.462-35.89-63.281c-19.74-34.805-36.42-63.175-37.07-63.045-.64.13-10.94 11.52-22.89 25.312l-21.72 25.076v38.391l-.01 38.39h-48.93Z"/><path fill="#3C4043" fill-rule="evenodd" d="M725.648 620c-52.356 7.091-93.928 46.578-107.679 102.282-5.243 21.237-5.208 57.532.076 78.977 9.387 38.1 36.861 74.695 67.803 90.314 18.03 9.101 33.548 12.354 58.153 12.194 25.729-.169 41.86-3.706 59.722-13.091 48.549-25.512 76.41-84.814 69.552-148.043-5.473-50.456-29.683-88.531-69.447-109.219-22.748-11.833-52.346-16.912-78.18-13.414Zm97.039 142.446c-.177-42.536-17.104-75.012-46.73-89.655-11.102-5.486-14.149-6.22-28.11-6.76-25.991-1.007-40.794 4.882-57.434 22.857-15.187 16.403-22.444 35.363-24.278 63.433-2.83 43.29 15.392 82.185 45.427 96.972 29.948 14.744 64.13 8.51 86.918-15.851 17.423-18.626 24.341-38.911 24.207-70.996ZM378.659 761.449v136.84h48.937V796.947l23.756.469 23.757.468 25.603 48.13c14.082 26.472 26.217 49.064 26.968 50.203 1.726 2.621 56.853 3.002 56.853.393 0-.923-13.188-25.928-29.305-55.567l-29.305-53.887 11.164-5.496c28.376-13.967 44.506-43.976 41.59-77.368-3.334-38.171-25.01-64.624-61.865-75.499-7.342-2.166-21.299-2.816-73.607-3.429l-64.546-.754v136.839Zm139.621-76.872c-7.101-8.087-16.038-12.233-30.387-14.098-18.926-2.458-58.535-2.156-59.538.454-.452 1.178-.617 20.353-.369 42.61l.454 40.466 15.187.501c8.353.275 24.187-.265 35.186-1.2 17.098-1.453 21.259-2.408 28.687-6.586 12.316-6.926 18.521-17.314 19.375-32.437.767-13.578-1.593-21.735-8.595-29.71Z" clip-rule="evenodd"/></svg>

<svg width="1920" height="1080" viewBox="0 0 1920 1080" fill="none" xmlns="http://www.w3.org/2000/svg">
<path fill-rule="evenodd" clip-rule="evenodd" d="M176.949 177.713C174.657 183.819 76.5967 474.478 76.5967 475.166C76.5967 475.612 90.0747 475.973 106.55 475.968L136.503 475.956L145.124 446.859L153.746 417.759H210.093H266.44L271.818 434.634C274.776 443.916 278.796 457.014 280.75 463.744L284.302 475.978H314.704C331.427 475.978 344.716 475.343 344.237 474.569C343.757 473.794 321.606 409.438 295.009 331.554C268.412 253.671 245.527 186.72 244.153 182.776L241.654 175.604H209.698C185.68 175.604 177.544 176.129 176.949 177.713ZM375.283 325.791V475.978H400.596H425.908V443.458V410.939L441.043 395.874C449.366 387.589 456.465 381.151 456.818 381.566C457.169 381.981 471.666 403.394 489.034 429.15L520.61 475.978H551.812H583.015L575.585 465.431C571.5 459.631 551.387 430.124 530.89 399.862L493.624 344.838L534.437 304.105L575.251 263.372L542.345 263.401L509.439 263.431L467.673 304.048L425.908 344.666V260.134V175.604H400.596H375.283V325.791ZM1070.53 228.112V280.622L1063.86 274.592C1047.13 259.479 1020.92 253.448 993.638 258.433C959.634 264.643 931.064 295.085 920.129 336.76C915.332 355.049 914.929 390.506 919.323 407.634C928.925 445.051 953.15 470.696 987.096 479.378C1015.67 486.685 1044.78 480.553 1062.98 463.393C1066.46 460.105 1069.59 457.415 1069.92 457.415C1070.26 457.415 1070.53 461.592 1070.53 466.697V475.978H1095.84H1121.16V325.791V175.604H1095.84H1070.53V228.112ZM821.907 178.417C821.288 179.035 820.782 190.805 820.782 204.573V229.604H846.094H871.406V203.448V177.291H847.219C833.915 177.291 822.525 177.798 821.907 178.417ZM231.919 300.187C242.201 334.831 251.03 364.256 251.536 365.577C252.317 367.614 246.151 367.978 210.933 367.978C188.094 367.978 169.409 367.428 169.409 366.757C169.409 366.085 176.292 342.733 184.704 314.866C211.142 227.289 210.207 230.086 211.792 233.823C212.578 235.679 221.635 265.542 231.919 300.187ZM1251.94 257.665C1222.25 262.277 1194.69 280.296 1179.84 304.792C1159.86 337.765 1158.23 389.823 1176.07 425.438C1188.35 449.96 1209.71 468.246 1236.39 477.088C1248.69 481.167 1252.8 481.687 1273.03 481.715C1301.42 481.756 1316.21 477.919 1339.69 464.424C1350.72 458.084 1378.8 430.841 1376.53 428.683C1375.75 427.948 1366.04 422.079 1354.94 415.64L1334.75 403.932L1326.74 412.694C1305.6 435.824 1264.42 439.776 1239.84 421.031C1230.21 413.691 1222.22 400.041 1218.41 384.431L1217.28 379.791H1296.62C1371.51 379.791 1375.97 379.622 1375.97 376.794C1375.97 368.89 1372.13 343.812 1369.12 331.984C1359.99 296.186 1337.84 271.801 1305.09 261.503C1294.23 258.087 1263.5 255.868 1251.94 257.665ZM1513.29 259.12C1498.19 262.404 1484.94 269.289 1475.45 278.782L1467.09 287.139V275.247V263.354H1441.78H1416.47V369.666V475.978H1441.78H1467.09L1467.13 420.713C1467.16 362.339 1468.34 347.386 1473.95 334.345C1478.13 324.635 1489.12 313.466 1498.24 309.67C1505.95 306.461 1521.33 306.059 1528.69 308.877C1535.4 311.454 1542.51 318.347 1546.98 326.635C1550.52 333.201 1550.64 335.33 1551.11 404.681L1551.6 475.978H1576.85H1602.09L1602.08 398.775C1602.07 319.748 1601.23 306.633 1595.37 292.956C1583.57 265.431 1549.27 251.293 1513.29 259.12ZM604.782 286.111V308.867L656.111 309.314L707.438 309.76L650.205 373.67L592.97 437.582V456.779V475.978H684.095H775.219V454.041V432.103H719.532C688.904 432.103 663.845 431.717 663.845 431.244C663.845 430.772 688.904 401.819 719.532 366.905L775.219 303.427V283.389V263.354H690.001H604.782V286.111ZM820.782 369.666V475.978H846.094H871.406V369.666V263.354H846.094H820.782V369.666ZM1654.4 286.135V308.916H1705.03C1732.87 308.916 1755.65 309.299 1755.65 309.767C1755.65 310.234 1730.24 338.899 1699.18 373.469L1642.7 436.322L1642.65 456.15L1642.59 475.978H1733.72H1824.84V454.041V432.103H1769.01C1732.89 432.103 1713.38 431.512 1713.75 430.431C1714.06 429.511 1739.18 400.329 1769.58 365.579L1824.84 302.399V282.876V263.354H1739.62H1654.4V286.135ZM1295.3 303.335C1307.75 310.079 1318.12 325.619 1318.46 338.025L1318.59 342.666H1268.95H1219.3L1221.04 336.338C1226.23 317.482 1239.8 303.896 1258.69 298.644C1268.33 295.965 1285.84 298.207 1295.3 303.335ZM1041 308.516C1048.96 312.617 1057.17 320.95 1061.27 329.068C1071.1 348.554 1072.41 385.82 1063.95 405.561C1059.43 416.104 1047.78 428.483 1038.51 432.613C1028.29 437.159 1011.5 437.145 1001.19 432.581C979.774 423.109 967.702 396.534 969.706 363.28C971.986 325.425 992.681 302.686 1023.28 304.415C1029.98 304.793 1036.88 306.388 1041 308.516Z" fill="#3C4043"/>
<path d="M121.545 653.699C141.765 634.524 164.264 623.675 191.672 619.885C234.288 613.992 279.648 632.19 304.297 665.068C311.437 674.59 322.971 694.889 322.971 697.932C322.971 698.895 275.455 718.202 275.097 717.383C269.02 703.505 260.105 688.878 254.01 682.783C228.622 657.395 182.967 659.042 158.15 686.239C142.274 703.637 134.561 724.643 132.954 754.853C130.292 804.926 151.777 843.029 188.65 853.628C201.905 857.439 223.924 856.335 237.25 851.195C256.363 843.822 271.655 824.323 275.418 802.524L276.948 793.665H242.535H208.124L208.595 771.306C208.853 759.007 209.636 749.137 210.331 749.368C211.026 749.599 236.656 749.79 267.284 749.79H322.971V824.09V898.391L301.456 897.918L279.94 897.446L279.442 886.097L278.945 874.749L269.835 882.169C259.252 890.79 243.367 898.646 230.159 901.791C217.353 904.84 188.068 904.417 173.628 900.973C129.071 890.346 95.0533 854.877 82.1406 805.585C78.6137 792.119 77.9067 785.535 77.8763 765.821C77.8003 717.979 91.8774 681.836 121.545 653.699Z" fill="#3C4043"/>
<path d="M1385.72 641.22C1401.59 629.568 1425.32 621.264 1448.53 619.235C1460.99 618.149 1485.74 619.865 1497.47 622.629C1503.5 624.051 1515.53 628.618 1524.21 632.776C1537.43 639.116 1542.54 642.838 1555.85 655.829C1564.58 664.35 1571.7 672.081 1571.67 673.009C1571.64 673.937 1562.42 681.457 1551.16 689.72L1530.71 704.744L1527.29 699.845C1514.63 681.713 1494.1 668.834 1472.65 665.571C1434.36 659.745 1402.93 679.005 1409.69 704.138C1413.45 718.075 1422.67 722.145 1478.9 734.697C1514.04 742.537 1529.54 747.946 1543.57 757.254C1563.26 770.323 1572.99 787.03 1574.6 810.54C1576.36 836.112 1569.43 855.532 1552.73 871.907C1528.1 896.049 1486.15 907.986 1441.91 903.446C1406.03 899.764 1381.36 889.425 1359.72 869.003C1352.42 862.106 1345.1 854.162 1343.46 851.349L1340.49 846.232L1361.58 831.699L1382.66 817.168L1393.59 828.756C1410.93 847.133 1429.95 855.236 1460.34 857.194C1486.45 858.873 1505.92 851.985 1515.58 837.649C1520.94 829.706 1520.92 814.98 1515.56 807.018C1508.26 796.191 1505.26 795.145 1435.87 779.233C1406.41 772.478 1391.21 766.51 1379.93 757.262C1345.12 728.735 1348.11 668.832 1385.72 641.22Z" fill="#3C4043"/>
<path d="M884.907 672.283V648.599V624.915H984.469H1084.03V648.603V672.29L1046.92 671.806L1009.8 671.322L1009.37 784.384L1008.94 897.446L984.059 897.913L959.18 898.379L958.747 785.146L958.313 671.912L921.61 672.098L884.907 672.283Z" fill="#3C4043"/>
<path d="M1121.56 763.29C1121.32 689.504 1121.49 628.179 1121.94 627.011C1122.58 625.332 1142.81 624.98 1218.56 625.324L1314.37 625.759L1314.84 648.119L1315.32 670.478H1243.55H1171.78V702.54V734.603H1237.59H1303.41V756.54V778.477H1237.59H1171.78V815.18L1171.78 851.883H1248.14H1324.5V874.665V897.446H1223.25H1122L1121.56 763.29Z" fill="#3C4043"/>
<path d="M1618.97 898.289V761.602V624.915H1643.42H1667.86L1668.31 687.616L1668.75 750.317L1723.57 687.616L1778.39 624.915H1807.66C1823.76 624.915 1836.68 625.528 1836.37 626.276C1836.06 627.025 1816.45 649.868 1792.78 677.039C1769.11 704.209 1749.55 726.985 1749.3 727.65C1748.92 728.666 1833.82 881.485 1841.01 892.746C1842.33 894.801 1843.4 896.907 1843.4 897.425C1843.4 897.945 1830.37 898.161 1814.44 897.908L1785.48 897.446L1749.59 834.165C1729.85 799.36 1713.17 770.99 1712.52 771.12C1711.88 771.25 1701.58 782.64 1689.63 796.432L1667.91 821.508L1667.91 859.899L1667.9 898.289H1643.44H1618.97Z" fill="#3C4043"/>
<path fill-rule="evenodd" clip-rule="evenodd" d="M725.648 620C673.292 627.091 631.72 666.578 617.969 722.282C612.726 743.519 612.761 779.814 618.045 801.259C627.432 839.359 654.906 875.954 685.848 891.573C703.878 900.674 719.396 903.927 744.001 903.767C769.73 903.598 785.861 900.061 803.723 890.676C852.272 865.164 880.133 805.862 873.275 742.633C867.802 692.177 843.592 654.102 803.828 633.414C781.08 621.581 751.482 616.502 725.648 620ZM822.687 762.446C822.51 719.91 805.583 687.434 775.957 672.791C764.855 667.305 761.808 666.571 747.847 666.031C721.856 665.024 707.053 670.913 690.413 688.888C675.226 705.291 667.969 724.251 666.135 752.321C663.305 795.611 681.527 834.506 711.562 849.293C741.51 864.037 775.692 857.803 798.48 833.442C815.903 814.816 822.821 794.531 822.687 762.446Z" fill="#3C4043"/>
<path fill-rule="evenodd" clip-rule="evenodd" d="M378.659 761.449V898.289H403.127H427.596V847.619V796.947L451.352 797.416L475.109 797.884L500.712 846.014C514.794 872.486 526.929 895.078 527.68 896.217C529.406 898.838 584.533 899.219 584.533 896.61C584.533 895.687 571.345 870.682 555.228 841.043L525.923 787.156L537.087 781.66C565.463 767.693 581.593 737.684 578.677 704.292C575.343 666.121 553.667 639.668 516.812 628.793C509.47 626.627 495.513 625.977 443.205 625.364L378.659 624.61V761.449ZM518.28 684.577C511.179 676.49 502.242 672.344 487.893 670.479C468.967 668.021 429.358 668.323 428.355 670.933C427.903 672.111 427.738 691.286 427.986 713.543L428.44 754.009L443.627 754.51C451.98 754.785 467.814 754.245 478.813 753.31C495.911 751.857 500.072 750.902 507.5 746.724C519.816 739.798 526.021 729.41 526.875 714.287C527.642 700.709 525.282 692.552 518.28 684.577Z" fill="#3C4043"/>
</svg>
